Papirus/16x16/apps/gst.svg

<svg width="16" height="16" version="1.1" xmlns="http://www.w3.org/2000/svg">
 <rect y="1" width="16" height="14" rx="1.455" ry="1.474" style="fill:#d63f36"/>
 <rect x="5" y="5" width="6" height="6" rx=".667" ry=".667" style="fill:#7ea193"/>
 <path d="m6 2v4h-2v-1.5c-2.76e-5 -0.2761309-0.2238691-0.4999724-0.5-0.5h-1c-0.6761613-0.00956-0.6761613 1.0095626 0 1h0.5v1.5c2.76e-5 0.2761309 0.2238691 0.4999724 0.5 0.5h3.5v-5zm3 0v5l4.507812 0.00781c0.276131-2.76e-5 0.499972-0.2238691 0.5-0.5v-2c0.004417-0.2822637-0.225546-0.5122266-0.507812-0.50781-0.276145 0.00431-0.496509 0.2316675-0.492188 0.5078125v1.5h-3.007812v-4.0078125zm-6.5 7c-0.2761309 2.76e-5 -0.4999724 0.2238691-0.5 0.5v2c-0.00956 0.676161 1.0095626 0.676161 1 0v-1.5h3v4h1v-5zm6.5 0v5h1v-3.992188h2.007812v1.5c2.8e-5 0.276131 0.223869 0.499972 0.5 0.5h1c0.676161 0.0096 0.676161-1.009563 0-1h-0.5v-1.4999995c-2.8e-5 -0.2761309-0.223869-0.4999724-0.5-0.5z" style="fill:#569c81"/>
 <path d="m6 5v1h-1v1h1v2h-1v1h1v1h1v-1h2v1h1v-1h1v-1h-1v-2h1v-1h-1v-1h-1v1h-2v-1z" style="fill:#fbd14e"/>
 <rect x="6" y="6" width="4" height="4" style="fill:#414141"/>
</svg>

<svg xmlns="http://www.w3.org/2000/svg" width="16" height="16" version="1.1">
 <rect style="fill:#d63f36" width="16" height="14" x="0" y="1" rx="1.5" ry="1.5"/>
 <rect style="fill:#7ea193" width="6" height="6" x="5" y="5" rx=".5" ry=".5"/>
 <path style="fill:#569c81" d="M 6,2 V 6 H 4 V 4.5 C 4,4 3.5,4 3.5,4 H 2.5 C 2.5,4 2,4 2,4.5 2,5 2.5,5 2.5,5 H 3 V 6.5 C 3,7 3.5,7 3.5,7 H 7 V 2 Z M 9,2 V 7 H 13.5 C 14,7 14,6.5 14,6.5 V 4.5 C 14,4.5 14,4 13.5,4 13,4 13,4.5 13,4.5 V 6 H 10 V 2 Z M 2.5,9 C 2,9 2,9.5 2,9.5 V 11.5 C 2,11.5 2,12 2.5,12 3,12 3,11.5 3,11.5 V 10 H 6 V 14 H 7 V 9 Z M 9,9 V 14 H 10 V 10 H 12 V 11.5 C 12,12 12.5,12 12.5,12 H 13.5 C 13.5,12 14,12 14,11.5 14,11 13.5,11 13.5,11 H 13 V 9.5 C 13,9.5 13,9 12.5,9 Z"/>
 <path style="fill:#fbd14e" d="M 6,4 V 6 H 4 V 7 H 6 V 9 H 4 V 10 H 6 V 12 H 7 V 10 H 9 V 12 H 10 V 10 H 12 V 9 H 10 V 7 H 12 V 6 H 10 V 4 H 9 V 6 H 7 V 4 Z"/>
 <rect style="fill:#414141" width="4" height="4" x="6" y="6"/>
</svg>
